app/images/icon-white-provider/52cbda1ec8318c2d65000001.svg

<svg xmlns="http://www.w3.org/2000/svg" viewBox="0 0 32 32" enable-background="new 0 0 32 32"><g fill="#fff"><path d="m16 0c-6.744 0-14 2.033-14 6.5v19c0 4.465 7.256 6.5 14 6.5 6.743 0 14-2.035 14-6.5v-19c0-4.467-7.258-6.5-14-6.5m12 25.5c0 2.484-5.373 4.5-12 4.5-6.628 0-12-2.02-12-4.5v-3.736c2.066 2.129 7.05 3.236 12 3.236s9.934-1.107 12-3.236v3.736m0-6h-.004c0 .01.004.021.004.031 0 2.469-5.373 4.469-12 4.469s-12-2-12-4.469c0-.01.004-.021.004-.031h-.004v-3.736c2.066 2.129 7.05 3.236 12 3.236s9.934-1.107 12-3.236v3.736m0-6h-.004c0 .01.004.021.004.031 0 2.469-5.373 4.469-12 4.469s-12-2-12-4.469c0-.01.004-.021.004-.031h-.004v-3.436c2.621 1.997 7.425 2.936 12 2.936s9.379-.939 12-2.936v3.436m-12-2.5c-6.628 0-12-2.02-12-4.5 0-2.486 5.372-4.5 12-4.5 6.627 0 12 2.01 12 4.5 0 2.484-5.373 4.5-12 4.5"/><circle cx="25" cy="26" r="1"/><circle cx="25" cy="20" r="1"/><circle cx="25" cy="14" r="1"/></g></svg>

<?xml version="1.0" encoding="utf-8"?>
<!-- Generator: Adobe Illustrator 16.0.0, SVG Export Plug-In . SVG Version: 6.00 Build 0)  -->
<!DOCTYPE svg PUBLIC "-//W3C//DTD SVG 1.1//EN" "http://www.w3.org/Graphics/SVG/1.1/DTD/svg11.dtd">
<svg version="1.1" id="Layer_1" xmlns="http://www.w3.org/2000/svg" xmlns:xlink="http://www.w3.org/1999/xlink" x="0px" y="0px"
	 width="32px" height="32px" viewBox="0 0 32 32" enable-background="new 0 0 32 32" xml:space="preserve">
<g id="data">
	<path fill="#FFFFFF" d="M16,0C9.256,0,2,2.033,2,6.5v19C2,29.965,9.256,32,16,32c6.743,0,14-2.035,14-6.5v-19
		C30,2.033,22.742,0,16,0z M28,25.5c0,2.484-5.373,4.5-12,4.5c-6.628,0-12-2.016-12-4.5v-3.736C6.066,23.893,11.05,25,16,25
		s9.934-1.107,12-3.236V25.5z M28,19.5h-0.004c0,0.01,0.004,0.021,0.004,0.031C28,22,22.627,24,16,24S4,22,4,19.531
		c0-0.01,0.004-0.021,0.004-0.031H4v-3.736C6.066,17.893,11.05,19,16,19s9.934-1.107,12-3.236V19.5z M28,13.5h-0.004
		c0,0.01,0.004,0.021,0.004,0.031C28,16,22.627,18,16,18S4,16,4,13.531c0-0.01,0.004-0.021,0.004-0.031H4v-3.436
		C6.621,12.061,11.425,13,16,13s9.379-0.939,12-2.936V13.5z M16,11C9.372,11,4,8.984,4,6.5C4,4.014,9.372,2,16,2
		c6.627,0,12,2.014,12,4.5C28,8.984,22.627,11,16,11z"/>
	<circle fill="#FFFFFF" cx="25" cy="26" r="1"/>
	<circle fill="#FFFFFF" cx="25" cy="20" r="1"/>
	<circle fill="#FFFFFF" cx="25" cy="14" r="1"/>
</g>
</svg>
